apps/scalable/lightworks.svg

<?xml version="1.0" standalone="no"?><!-- Generator: Gravit.io --><svg xmlns="http://www.w3.org/2000/svg" xmlns:xlink="http://www.w3.org/1999/xlink" style="isolation:isolate" viewBox="0 0 256 256" width="256" height="256"><defs><filter id="WTtkazYs3G6IoBY4rKcWfvDuKOCWu8qV" x="-200%" y="-200%" width="400%" height="400%" filterUnits="objectBoundingBox" color-interpolation-filters="sRGB"><feGaussianBlur xmlns="http://www.w3.org/2000/svg" in="SourceGraphic" stdDeviation="4.294"/><feOffset xmlns="http://www.w3.org/2000/svg" dx="0" dy="4" result="pf_100_offsetBlur"/><feFlood xmlns="http://www.w3.org/2000/svg" flood-color="#000000" flood-opacity="0.4"/><feComposite xmlns="http://www.w3.org/2000/svg" in2="pf_100_offsetBlur" operator="in" result="pf_100_dropShadow"/><feBlend xmlns="http://www.w3.org/2000/svg" in="SourceGraphic" in2="pf_100_dropShadow" mode="normal"/></filter></defs><g filter="url(#WTtkazYs3G6IoBY4rKcWfvDuKOCWu8qV)"><path d=" M 165.685 11.947 C 239.74 11.947 250.324 22.504 250.324 96.491 L 250.324 155.742 C 250.324 229.728 239.74 240.285 165.685 240.285 L 90.315 240.285 C 16.26 240.285 5.676 229.728 5.676 155.742 L 5.676 96.491 C 5.676 22.504 16.26 11.947 90.315 11.947 L 165.685 11.947 L 165.685 11.947 Z " id="Path" fill="rgb(59,59,59)"/></g><path d=" M 190.966 12.568 C 242.261 15.658 250.324 31.913 250.324 96.491 L 250.324 155.742 C 250.324 220.078 242.321 236.452 191.539 239.629 C 190.47 242.107 190.05 14.129 190.966 12.568 L 190.966 12.568 Z  M 65 239.662 C 13.735 236.567 5.676 220.305 5.676 155.742 L 5.676 96.491 C 5.676 31.913 13.739 15.658 65.034 12.568 C 65.007 11.963 64.992 239.97 65 239.662 L 65 239.662 Z " id="Compound Path" fill="rgb(128,128,128)"/><g id="Group" style="opacity:0.6;"><g opacity="0.6"><linearGradient id="_lgradient_28" x1="1.0000050431186642" y1="0.5000000000000001" x2="1.0000050431186642" y2="0.018000000000000016" gradientTransform="matrix(198.29,0,0,181.197,28.855,36.382)" gradientUnits="userSpaceOnUse"><stop offset="0%" stop-opacity="0.972" style="stop-color:rgb(255,255,255)"/><stop offset="64.572%" stop-opacity="0.916" style="stop-color:rgb(255,255,255)"/><stop offset="100%" stop-opacity="0" style="stop-color:rgb(255,255,255)"/></linearGradient><path d=" M 224.059 36.382 C 225.174454 37.375518 226.206578 38.458813 227.145 39.621 L 227.145 46.639 L 210.051 46.639 L 210.051 36.382 L 224.059 36.382 L 224.059 36.382 Z  M 45.949 36.382 L 45.949 46.639 L 28.855 46.639 L 28.855 39.621 C 29.793422 38.458813 30.825546 37.375518 31.941 36.382 L 45.949 36.382 L 45.949 36.382 Z  M 227.145 53.476 L 227.145 63.733 L 210.051 63.733 L 210.051 53.476 L 227.145 53.476 L 227.145 53.476 Z  M 45.949 53.476 L 45.949 63.733 L 28.855 63.733 L 28.855 53.476 L 45.949 53.476 L 45.949 53.476 Z  M 227.145 70.57 L 227.145 80.827 L 210.051 80.827 L 210.051 70.57 L 227.145 70.57 L 227.145 70.57 Z  M 45.949 70.57 L 45.949 80.827 L 28.855 80.827 L 28.855 70.57 L 45.949 70.57 L 45.949 70.57 Z  M 227.145 87.664 L 227.145 97.921 L 210.051 97.921 L 210.051 87.664 L 227.145 87.664 L 227.145 87.664 Z  M 45.949 87.664 L 45.949 97.921 L 28.855 97.921 L 28.855 87.664 L 45.949 87.664 L 45.949 87.664 Z  M 227.145 104.758 L 227.145 115.015 L 210.051 115.015 L 210.051 104.758 L 227.145 104.758 L 227.145 104.758 Z  M 45.949 104.758 L 45.949 115.015 L 28.855 115.015 L 28.855 104.758 L 45.949 104.758 L 45.949 104.758 Z  M 227.145 121.852 L 227.145 132.109 L 210.051 132.109 L 210.051 121.852 L 227.145 121.852 L 227.145 121.852 Z  M 45.949 121.852 L 45.949 132.109 L 28.855 132.109 L 28.855 121.852 L 45.949 121.852 L 45.949 121.852 Z  M 227.145 138.946 L 227.145 149.203 L 210.051 149.203 L 210.051 138.946 L 227.145 138.946 L 227.145 138.946 Z  M 45.949 138.946 L 45.949 149.203 L 28.855 149.203 L 28.855 138.946 L 45.949 138.946 L 45.949 138.946 Z  M 227.145 156.04 L 227.145 166.297 L 210.051 166.297 L 210.051 156.04 L 227.145 156.04 L 227.145 156.04 Z  M 45.949 156.04 L 45.949 166.297 L 28.855 166.297 L 28.855 156.04 L 45.949 156.04 L 45.949 156.04 Z  M 227.145 173.134 L 227.145 183.391 L 210.051 183.391 L 210.051 173.134 L 227.145 173.134 L 227.145 173.134 Z  M 45.949 173.134 L 45.949 183.391 L 28.855 183.391 L 28.855 173.134 L 45.949 173.134 L 45.949 173.134 Z  M 227.145 190.228 L 227.145 200.485 L 210.051 200.485 L 210.051 190.228 L 227.145 190.228 L 227.145 190.228 Z  M 45.949 190.228 L 45.949 200.485 L 28.855 200.485 L 28.855 190.228 L 45.949 190.228 L 45.949 190.228 Z  M 227.145 207.323 L 227.145 214.34 C 226.206578 215.502187 225.174454 216.585482 224.059 217.579 L 210.051 217.579 L 210.051 207.323 L 227.145 207.323 L 227.145 207.323 Z  M 45.949 207.323 L 45.949 217.579 L 31.941 217.579 C 30.825546 216.585482 29.793422 215.502187 28.855 214.34 L 28.855 207.323 L 45.949 207.323 L 45.949 207.323 Z " id="Compound Path" fill="url(#_lgradient_28)"/></g></g><path d=" M 214.659 173.484 L 212.172 189.968 L 199.967 181.341 L 199.39 200.506 L 183.366 189.198 L 181.07 210.474 L 163.715 195.522 L 158.748 212.97 L 145.01 197.055 L 136.81 210.666 L 129.749 194.374 L 123.693 206.621 C 124.444 207.423 125.223 208.111 125.988 208.865 C 127.896 210.345 130.134 211.621 130.134 211.621 C 130.134 211.621 154.933 223.123 187.369 212.007 C 203.824 206.367 220.075 191.948 232.25 179.029 C 231.782 178.845 231.385 178.633 230.876 178.468 L 214.659 173.484 L 214.659 173.484 Z " fill-rule="evenodd" id="Path" fill="rgb(0,0,0)"/><g opacity="0.2"><ellipse vector-effect="non-scaling-stroke" cx="209.498" cy="99.418" rx="16.460000000000008" ry="16.533" id="Ellipse" fill="rgb(0,0,0)"/></g><g opacity="0.2"><ellipse vector-effect="non-scaling-stroke" cx="201.941" cy="91.827" rx="4.049000000000007" ry="4.0660000000000025" id="Ellipse" fill="rgb(0,0,0)"/></g><path d=" M 250.287 157.159 C 250.288 156.59 250.324 156.184 250.324 155.607 L 250.324 131.019 C 226.445 143.652 202.763 151.825 182.234 157.066 C 181.365 157.327 180.394 157.664 179.555 157.904 C 152.031 165.764 132.596 194.066 132.596 194.066 L 131.072 207.685 C 133.542 208.759 156.671 218.239 187.369 207.718 C 216.451 197.751 244.545 164.537 250.287 157.159 Z " fill-rule="evenodd" id="Path" fill="rgb(63,63,63)"/><path d=" M 221.754 143.673 L 221.419 143.724 C 161.799 154.656 119.639 159.365 119.639 159.365 C 119.639 159.365 100.483 165.54 83.394 161.91 L 100.482 186.753 L 105.876 171.299 L 117.754 188.378 L 126.113 170.754 L 145.002 189.459 L 151.753 168.049 L 169.561 185.128 L 178.197 161.817 L 191.692 176.45 L 200.051 155.04 L 214.894 165.335 L 221.369 144.829 L 221.754 143.673 L 221.754 143.673 Z " fill-rule="evenodd" id="Path" fill="rgb(255,255,255)"/><path d=" M 214.659 169.196 L 212.172 185.681 L 199.967 177.053 L 199.39 196.218 L 183.366 184.91 L 181.07 206.186 L 163.715 191.234 L 158.748 208.682 L 145.01 192.767 L 136.81 206.379 L 129.749 190.087 L 123.693 202.333 C 124.444 203.135 121.761 207.285 122.526 208.04 C 124.434 209.519 123.21 213.269 123.21 213.269 C 123.21 213.269 158.395 226.255 190.832 215.138 C 207.286 209.498 223.537 188.155 235.712 175.236 C 235.244 175.052 231.385 174.345 230.876 174.18 L 214.659 169.196 L 214.659 169.196 Z " fill-rule="evenodd" id="Path" fill="rgb(255,255,255)"/><path d=" M 242.877 215.216 C 242.935 215.091 243.013 214.994 243.07 214.868 C 244.031 212.753 244.875 210.468 245.611 207.999 C 246.348 205.53 246.976 202.877 247.514 200.029 C 248.051 197.18 248.495 194.136 248.859 190.882 C 249.224 187.628 249.508 184.166 249.725 180.482 C 250.146 173.319 250.298 165.239 250.307 156.304 C 246.068 161.114 197.712 214.946 149.402 216.413 C 138.659 216.598 129.177 211.49 123.686 202.339 C 123.686 202.339 119.37 203.012 120.18 208.976 C 124.319 230.12 159.971 233.453 168.693 233.57 C 186.728 233.517 211 228.829 242.877 215.216 Z  M 250.324 132.234 L 250.324 96.355 C 250.324 87.106 250.158 78.849 249.725 71.48 C 249.527776 68.005993 249.239009 64.537788 248.859 61.079 C 248.495 57.826 248.051 54.781 247.514 51.933 C 246.976 49.084 246.348 46.431 245.611 43.962 C 244.875 41.493 244.031 39.209 243.07 37.093 C 242.153529 35.054472 241.065621 33.097442 239.818 31.243 C 238.629384 29.482279 237.274867 27.839446 235.773 26.337 C 234.268893 24.83775 232.624728 23.485919 230.863 22.3 C 229.005832 21.053402 227.046509 19.96619 225.006 19.05 C 222.888 18.09 220.601 17.25 218.129 16.515 C 216.289 15.968 214.238 15.536 212.189 15.101 C 182.241 25.011 102.226 52.095 68.381 70.198 C 26.826 92.426 26.178 100.547 31.035 112.474 C 35.892 124.401 50.564 130.83 58.119 148.72 C 65.675 166.61 119.641 164.95 119.641 164.95 C 119.641 164.95 184.304 167.122 250.324 132.234 Z " id="Compound Path" fill="rgb(247,99,99)"/><circle vector-effect="non-scaling-stroke" cx="208.974" cy="96.33" r="17.155" id="Ellipse" fill="rgb(63,63,63)"/><circle vector-effect="non-scaling-stroke" cx="202.541" cy="89.897" r="6.432999999999993" id="Ellipse" fill="rgb(248,252,249)"/><g opacity="0.4"><linearGradient id="_lgradient_29" x1="0.5166666666666668" y1="0" x2="0.5166666666666666" y2="1.0000000000000002" gradientTransform="matrix(244.65,0,0,228.34,5.68,11.95)" gradientUnits="userSpaceOnUse"><stop offset="0%" stop-opacity="1" style="stop-color:rgb(255,255,255)"/><stop offset="12.5%" stop-opacity="0.09803922" style="stop-color:rgb(255,255,255)"/><stop offset="92.500001%" stop-opacity="0.09803922" style="stop-color:rgb(0,0,0)"/><stop offset="100%" stop-opacity="0.49803922" style="stop-color:rgb(0,0,0)"/></linearGradient><path d=" M 165.06803 11.951234 C 169.395994 11.941409 173.723944 11.990533 178.051908 12.088781 C 181.927398 12.167379 185.802873 12.31475 189.678362 12.540721 C 193.1309 12.737216 196.583423 13.022134 200.026115 13.395476 C 203.085193 13.729518 206.144271 14.181458 209.173842 14.741469 C 211.888645 15.242533 214.57394 15.881143 217.219897 16.6573 C 219.619947 17.354858 221.970814 18.219439 224.242988 19.241215 C 226.357793 20.184394 228.384061 21.304417 230.302129 22.591462 C 232.141505 23.829383 233.862851 25.244151 235.436659 26.80629 C 237.000621 28.378252 238.417046 30.087764 239.656409 31.924995 C 240.944972 33.840824 242.066305 35.864728 243.020409 37.967229 C 244.043389 40.246576 244.908985 42.584873 245.617197 44.972292 C 246.394255 47.615155 247.033606 50.297317 247.535265 53.008956 C 248.095924 56.034984 248.548399 59.080665 248.882828 62.13617 C 249.256611 65.574836 249.541856 69.013506 249.738578 72.462003 C 249.964823 76.323139 250.112361 80.194101 250.200884 84.055237 C 250.289421 88.378131 250.338591 92.701032 250.32876 97.014106 L 250.32876 155.225886 C 250.338591 159.54878 250.289421 163.861854 250.200884 168.184747 C 250.112361 172.05571 249.964823 175.916853 249.738578 179.777981 C 249.541856 183.226485 249.256611 186.674975 248.882828 190.103826 C 248.548399 193.15933 248.095924 196.214835 247.535265 199.240851 C 247.033606 201.942664 246.394255 204.624837 245.617197 207.267703 C 244.908985 209.655115 244.043389 212.003235 243.020409 214.272755 C 242.066305 216.38509 240.944972 218.399156 239.656409 220.314999 C 238.417046 222.152226 237.000621 223.871561 235.436659 225.433697 C 233.862851 226.995832 232.141505 228.410601 230.302129 229.648532 C 228.384061 230.935575 226.357793 232.055598 224.242988 232.998768 C 221.970814 234.020552 219.619947 234.885137 217.219897 235.592507 C 214.57394 236.368672 211.888645 237.007276 209.173842 237.498515 C 206.144271 238.068354 203.085193 238.510465 200.026115 238.844519 C 196.583423 239.21785 193.1309 239.502777 189.678362 239.699269 C 185.802873 239.925235 181.927398 240.072615 178.051908 240.161035 C 173.723944 240.249454 169.395994 240.298581 165.06803 240.288762 L 90.941963 240.288762 C 86.614006 240.298581 82.286049 240.249454 77.9581 240.161035 C 74.08261 240.072615 70.20712 239.925235 66.331638 239.699269 C 62.879108 239.502777 59.426578 239.21785 55.983886 238.844519 C 52.924808 238.510465 49.865733 238.068354 46.836162 237.498515 C 44.121356 237.007276 41.436057 236.368672 38.7901 235.592507 C 36.390053 234.885137 34.039187 234.020552 31.767009 232.998768 C 29.652213 232.055598 27.625943 230.935575 25.707871 229.648532 C 23.868489 228.410601 22.147143 226.995832 20.573343 225.433697 C 19.009377 223.871561 17.592955 222.152226 16.353586 220.314999 C 15.065036 218.399156 13.943701 216.38509 12.989584 214.272755 C 11.966612 212.003235 11.101021 209.655115 10.392811 207.267703 C 9.615746 204.624837 8.976389 201.942664 8.47474 199.240851 C 7.914072 196.214835 7.461604 193.15933 7.127172 190.103826 C 6.753394 186.674975 6.468142 183.226485 6.271417 179.777981 C 6.045183 175.916853 5.897639 172.05571 5.809112 168.184747 C 5.720586 163.861854 5.671405 159.54878 5.681241 155.225886 L 5.681241 97.014106 C 5.671405 92.701032 5.720586 88.378131 5.809112 84.055237 C 5.897639 80.194101 6.045183 76.323139 6.271417 72.462003 C 6.468142 69.013506 6.753394 65.574836 7.127172 62.13617 C 7.461604 59.080665 7.914072 56.034984 8.47474 53.008956 C 8.976389 50.297317 9.615746 47.615155 10.392811 44.972292 C 11.101021 42.584873 11.966612 40.246576 12.989584 37.967229 C 13.943701 35.864728 15.065036 33.840824 16.353586 31.924995 C 17.592955 30.087764 19.009377 28.378252 20.573343 26.80629 C 22.147143 25.244151 23.868489 23.829383 25.707871 22.591462 C 27.625943 21.304417 29.652213 20.184394 31.767009 19.241215 C 34.039187 18.219439 36.390053 17.354858 38.7901 16.6573 C 41.436057 15.881143 44.121356 15.242533 46.836162 14.741469 C 49.865733 14.181458 52.924808 13.729518 55.983886 13.395476 C 59.426578 13.022134 62.879108 12.737216 66.331638 12.540721 C 70.20712 12.31475 74.08261 12.167379 77.9581 12.088781 C 82.286049 11.990533 86.614006 11.941409 90.941963 11.951234 L 165.06803 11.951234 Z  M 165.077876 15.959741 C 169.376317 15.949916 173.674759 15.99904 177.973216 16.087463 C 181.799522 16.175886 185.625827 16.323257 189.452133 16.539402 C 192.835809 16.735898 196.219486 17.010992 199.583486 17.384332 C 202.554026 17.698726 205.514751 18.131016 208.445953 18.681203 C 211.023049 19.152792 213.580483 19.761928 216.098564 20.498786 C 218.321569 21.147221 220.495374 21.952852 222.600334 22.896029 C 224.508571 23.750785 226.338116 24.762737 228.069293 25.922059 C 229.692286 27.012609 231.207063 28.260355 232.59398 29.645648 C 233.980897 31.030941 235.230091 32.543956 236.331763 34.165043 C 237.492434 35.894202 238.505568 37.711787 239.361333 39.607968 C 240.305606 41.720292 241.112187 43.891565 241.761369 46.102139 C 242.508934 48.617282 243.108947 51.161898 243.590914 53.735987 C 244.131912 56.663768 244.564709 59.6112 244.889308 62.578282 C 245.263091 65.938355 245.538505 69.308252 245.735227 72.687976 C 245.951626 76.509812 246.10901 80.321821 246.187687 84.143656 C 246.276225 88.437084 246.325394 92.720685 246.325394 97.014106 C 246.325394 97.014106 246.325394 97.014106 246.325394 97.014106 L 246.325394 155.225886 C 246.325394 155.225886 246.325394 155.225886 246.325394 155.225886 C 246.325394 159.519306 246.276225 163.802907 246.187687 168.096328 C 246.10901 171.918164 245.951626 175.739999 245.735227 179.552015 C 245.538505 182.931739 245.263091 186.301629 244.889308 189.671533 C 244.564709 192.628784 244.131912 195.576216 243.590914 198.503994 C 243.108947 201.078094 242.508934 203.622706 241.761369 206.137845 C 241.112187 208.358253 240.305606 210.5197 239.361333 212.63202 C 238.505568 214.528209 237.492434 216.355617 236.331763 218.074952 C 235.230091 219.705853 233.980897 221.218876 232.59398 222.604172 C 231.207063 223.979634 229.692286 225.227385 228.069293 226.317935 C 226.338116 227.477251 224.508571 228.489201 222.600334 229.343951 C 220.495374 230.296956 218.321569 231.092775 216.098564 231.741198 C 213.580483 232.478056 211.023049 233.087202 208.445953 233.558787 C 205.514751 234.108972 202.554026 234.541264 199.583486 234.865483 C 196.219486 235.228995 192.835809 235.513922 189.452133 235.70058 C 185.625827 235.916726 181.799522 236.073926 177.973216 236.152526 C 173.674759 236.25078 169.376317 236.290072 165.077876 236.290072 C 165.077876 236.290072 165.077876 236.290072 165.06803 236.290072 L 90.941963 236.290072 C 90.932125 236.290072 90.932125 236.290072 90.932125 236.290072 C 86.633683 236.290072 82.335234 236.25078 78.036784 236.152526 C 74.210479 236.073926 70.384173 235.916726 66.557868 235.70058 C 63.174195 235.513922 59.790522 235.228995 56.426518 234.865483 C 53.455967 234.541264 50.495253 234.108972 47.564048 233.558787 C 44.986944 233.087202 42.429517 232.478056 39.911433 231.741198 C 37.688439 231.092775 35.514626 230.296956 33.409665 229.343951 C 31.501429 228.489201 29.671886 227.477251 27.940703 226.317935 C 26.31772 225.227385 24.802935 223.979634 23.416022 222.604172 C 22.029109 221.218876 20.779904 219.705853 19.678243 218.074952 C 18.517564 216.355617 17.504428 214.528209 16.648674 212.63202 C 15.704392 210.5197 14.897819 208.358253 14.248626 206.137845 C 13.50107 203.622706 12.901057 201.078094 12.419081 198.503994 C 11.878086 195.576216 11.445291 192.628784 11.120694 189.671533 C 10.746916 186.301629 10.471501 182.931739 10.274776 179.552015 C 10.058378 175.739999 9.900997 171.918164 9.822307 168.096328 C 9.733781 163.802907 9.6846 159.519306 9.6846 155.225886 C 9.6846 155.225886 9.6846 155.225886 9.6846 155.225886 L 9.6846 97.014106 C 9.6846 97.014106 9.6846 97.014106 9.6846 97.014106 C 9.6846 92.720685 9.733781 88.437084 9.822307 84.143656 C 9.900997 80.321821 10.058378 76.509812 10.274776 72.687976 C 10.471501 69.308252 10.746916 65.938355 11.120694 62.578282 C 11.445291 59.6112 11.878086 56.663768 12.419081 53.735987 C 12.901057 51.161898 13.50107 48.617282 14.248626 46.102139 C 14.897819 43.891565 15.704392 41.720292 16.648674 39.607968 C 17.504428 37.711787 18.517564 35.894202 19.678243 34.165043 C 20.779904 32.543956 22.029109 31.030941 23.416022 29.645648 C 24.802935 28.260355 26.31772 27.012609 27.940703 25.922059 C 29.671886 24.762737 31.501429 23.750785 33.409665 22.896029 C 35.514626 21.952852 37.688439 21.147221 39.911433 20.498786 C 42.429517 19.761928 44.986944 19.152792 47.564048 18.681203 C 50.495253 18.131016 53.455967 17.698726 56.426518 17.384332 C 59.790522 17.010992 63.174195 16.735898 66.557868 16.539402 C 70.384173 16.323257 74.210479 16.175886 78.036784 16.087463 C 82.335234 15.99904 86.633683 15.949916 90.932125 15.959741 C 90.932125 15.959741 90.932125 15.959741 90.941963 15.959741 L 165.06803 15.959741 C 165.077876 15.959741 165.077876 15.959741 165.077876 15.959741 Z " fill-rule="evenodd" id="highlight" fill="url(#_lgradient_29)"/></g></svg>

<svg xmlns="http://www.w3.org/2000/svg" style="isolation:isolate" width="256" height="256"><defs><filter id="a" width="270.648" height="254.338" x="-7.32" y="2.95" filterUnits="userSpaceOnUse"><feGaussianBlur xmlns="http://www.w3.org/2000/svg" in="SourceGraphic" stdDeviation="4.294"/><feOffset xmlns="http://www.w3.org/2000/svg" dy="4" result="pf_100_offsetBlur"/><feFlood xmlns="http://www.w3.org/2000/svg" flood-opacity=".4"/><feComposite xmlns="http://www.w3.org/2000/svg" in2="pf_100_offsetBlur" operator="in" result="pf_100_dropShadow"/><feBlend xmlns="http://www.w3.org/2000/svg" in="SourceGraphic" in2="pf_100_dropShadow"/></filter></defs><path fill="#3B3B3B" d="M165.685 11.947c74.055 0 84.639 10.557 84.639 84.544v59.251c0 73.986-10.584 84.543-84.639 84.543h-75.37c-74.055 0-84.639-10.557-84.639-84.543V96.491c0-73.987 10.584-84.544 84.639-84.544h75.37z" filter="url(#a)"/><path fill="gray" d="M190.966 12.568c51.295 3.09 59.358 19.345 59.358 83.923v59.251c0 64.336-8.003 80.71-58.785 83.887-1.069 2.478-1.489-225.5-.573-227.061zM65 239.662c-51.265-3.095-59.324-19.357-59.324-83.92V96.491c0-64.578 8.063-80.833 59.358-83.923-.027-.605-.042 227.402-.034 227.094z"/><g opacity=".4"><linearGradient id="b" x1=".517" x2=".517" y2="1"><stop offset="0%" stop-color="#fff"/><stop offset="12.5%" stop-opacity=".098" stop-color="#fff"/><stop offset="92.5%" stop-opacity=".098"/><stop offset="100%" stop-opacity=".498"/></linearGradient><path fill="none" stroke="url(#b)" stroke-linecap="round" stroke-linejoin="round" stroke-width="4.077" d="M165.685 11.947c74.055 0 84.639 10.557 84.639 84.544v59.251c0 73.986-10.584 84.543-84.639 84.543h-75.37c-74.055 0-84.639-10.557-84.639-84.543V96.491c0-73.987 10.584-84.544 84.639-84.544h75.37z" vector-effect="non-scaling-stroke"/></g><g opacity=".6"><linearGradient id="c" x1="1" x2="1" y1=".5" y2=".018" gradientTransform="matrix(198.291 0 0 181.197 28.855 36.382)" gradientUnits="userSpaceOnUse"><stop offset="0%" stop-opacity=".972" stop-color="#fff"/><stop offset="64.572%" stop-opacity=".916" stop-color="#fff"/><stop offset="100%" stop-opacity="0" stop-color="#fff"/></linearGradient><path fill="url(#c)" d="M224.059 36.382a27.33 27.33 0 0 1 3.086 3.239v7.018h-17.094V36.382h14.008zm-178.11 0v10.257H28.855v-7.018a27.33 27.33 0 0 1 3.086-3.239h14.008zm181.196 17.094v10.257h-17.094V53.476h17.094zm-181.196 0v10.257H28.855V53.476h17.094zM227.145 70.57v10.257h-17.094V70.57h17.094zm-181.196 0v10.257H28.855V70.57h17.094zm181.196 17.094v10.257h-17.094V87.664h17.094zm-181.196 0v10.257H28.855V87.664h17.094zm181.196 17.094v10.257h-17.094v-10.257h17.094zm-181.196 0v10.257H28.855v-10.257h17.094zm181.196 17.094v10.257h-17.094v-10.257h17.094zm-181.196 0v10.257H28.855v-10.257h17.094zm181.196 17.094v10.257h-17.094v-10.257h17.094zm-181.196 0v10.257H28.855v-10.257h17.094zm181.196 17.094v10.257h-17.094V156.04h17.094zm-181.196 0v10.257H28.855V156.04h17.094zm181.196 17.094v10.257h-17.094v-10.257h17.094zm-181.196 0v10.257H28.855v-10.257h17.094zm181.196 17.094v10.257h-17.094v-10.257h17.094zm-181.196 0v10.257H28.855v-10.257h17.094zm181.196 17.095v7.017a27.33 27.33 0 0 1-3.086 3.239h-14.008v-10.256h17.094zm-181.196 0v10.256H31.941a27.33 27.33 0 0 1-3.086-3.239v-7.017h17.094z"/></g><path fill-rule="evenodd" d="M214.659 173.484l-2.487 16.484-12.205-8.627-.577 19.165-16.024-11.308-2.296 21.276-17.355-14.952-4.967 17.448-13.738-15.915-8.2 13.611-7.061-16.292-6.056 12.247c.751.802 1.53 1.49 2.295 2.244 1.908 1.48 4.146 2.756 4.146 2.756s24.799 11.502 57.235.386c16.455-5.64 32.706-20.059 44.881-32.978-.468-.184-.865-.396-1.374-.561l-16.217-4.984z"/><ellipse rx="1" ry="1" transform="matrix(16.46 0 0 16.533 209.498 99.418)" vector-effect="non-scaling-stroke" opacity=".2"/><ellipse rx="1" ry="1" transform="matrix(4.049 0 0 4.066 201.941 91.827)" vector-effect="non-scaling-stroke" opacity=".2"/><path fill="#3F3F3F" fill-rule="evenodd" d="M250.287 157.159c.001-.569.037-.975.037-1.552v-24.588c-23.879 12.633-47.561 20.806-68.09 26.047-.869.261-1.84.598-2.679.838-27.524 7.86-46.959 36.162-46.959 36.162l-1.524 13.619c2.47 1.074 25.599 10.554 56.297.033 29.082-9.967 57.176-43.181 62.918-50.559z"/><path fill="#FFF" fill-rule="evenodd" d="M221.754 143.673l-.335.051c-59.62 10.932-101.78 15.641-101.78 15.641s-19.156 6.175-36.245 2.545l17.088 24.843 5.394-15.454 11.878 17.079 8.359-17.624 18.889 18.705 6.751-21.41 17.808 17.079 8.636-23.311 13.495 14.633 8.359-21.41 14.843 10.295 6.475-20.506.385-1.156z"/><path fill="#FFF" fill-rule="evenodd" d="M214.659 169.196l-2.487 16.485-12.205-8.628-.577 19.165-16.024-11.308-2.296 21.276-17.355-14.952-4.967 17.448-13.738-15.915-8.2 13.612-7.061-16.292-6.056 12.246c.751.802-1.932 4.952-1.167 5.707 1.908 1.479.684 5.229.684 5.229s35.185 12.986 67.622 1.869c16.454-5.64 32.705-26.983 44.88-39.902-.468-.184-4.327-.891-4.836-1.056l-16.217-4.984z"/><path fill="#F76363" d="M242.877 215.216c.058-.125.136-.222.193-.348.961-2.115 1.805-4.4 2.541-6.869.737-2.469 1.365-5.122 1.903-7.97.537-2.849.981-5.893 1.345-9.147.365-3.254.649-6.716.866-10.4.421-7.163.573-15.243.582-24.178-4.239 4.81-52.595 58.642-100.905 60.109-10.743.185-20.225-4.923-25.716-14.074 0 0-4.316.673-3.506 6.637 4.139 21.144 39.791 24.477 48.513 24.594 18.035-.053 42.307-4.741 74.184-18.354zm7.447-82.982V96.355c0-9.249-.166-17.506-.599-24.875a198 198 0 0 0-.866-10.401c-.364-3.253-.808-6.298-1.345-9.146-.538-2.849-1.166-5.502-1.903-7.971-.736-2.469-1.58-4.753-2.541-6.869a39.484 39.484 0 0 0-3.252-5.85 33.271 33.271 0 0 0-4.045-4.906 33.279 33.279 0 0 0-4.91-4.037 39.65 39.65 0 0 0-5.857-3.25c-2.118-.96-4.405-1.8-6.877-2.535-1.84-.547-3.891-.979-5.94-1.414-29.948 9.91-109.963 36.994-143.808 55.097-41.555 22.228-42.203 30.349-37.346 42.276 4.857 11.927 19.529 18.356 27.084 36.246 7.556 17.89 61.522 16.23 61.522 16.23s64.663 2.172 130.683-32.716z"/><circle fill="#3F3F3F" r="1" transform="translate(208.974 96.33) scale(17.155)" vector-effect="non-scaling-stroke"/><circle fill="#F8FCF9" r="1" transform="translate(202.541 89.897) scale(6.433)" vector-effect="non-scaling-stroke"/></svg>
